svgs/sharp-solid/square-k.svg

<svg xmlns="http://www.w3.org/2000/svg" viewBox="0 0 448 512"><!--! Font Awesome Pro 6.6.0 by @fontawesome - https://fontawesome.com License - https://fontawesome.com/license (Commercial License) Copyright 2024 Fonticons, Inc. --><path d="M448 32L0 32 0 480l448 0 0-448zM337.1 128l-1 1.1L238.3 238.3 330 376.7l4.8 7.3-57.6 0L205.1 275.2 176 307.7l0 52.3 0 24-48 0 0-24 0-61.5L128 152l0-24 48 0 0 24 0 83.8L190.1 220l82.5-92 64.5 0z"/></svg>

<svg xmlns="http://www.w3.org/2000/svg" viewBox="0 0 448 512"><!--! Font Awesome Pro 6.4.0 by @fontawesome - https://fontawesome.com License - https://fontawesome.com/license (Commercial License) Copyright 2023 Fonticons, Inc. --><path d="M448 32H0V480H448V32zM337.1 128l-1 1.1L238.3 238.3 330 376.7l4.8 7.3H277.2L205.1 275.2 176 307.7V360v24H128V360 298.5 152 128h48v24 83.8L190.1 220l82.5-92h64.5z"/></svg>
